X:1
T:30
T:Hugo Distler
T:Hans Sachs (1494 - 1576)
T:30.  Awake in Splendor Glorious Wach auf, mein's Herzens Schöne
T:Bärenreiter
T:Bärenreiter
T:Bärenreiter
T:Bärenreiter
T:Bärenreiter
T:Bärenreiter
C:Hugo Distler
Z:Hans Sachs (1494 - 1576)
Z:Bärenreiter
%%score [ 1 ( 2 3 ) ( 4 5 ) ]
L:1/8
Q:1/4=120
M:3/4
K:F
V:1 treble nm="Sop. 1"
V:2 treble nm="Sop. 2"
V:3 treble 
V:4 treble nm="Alto"
V:5 treble 
V:1
 c2 (f3 e) | d2 (c3 d) | (cB) A4 | !breath!AA (d3 e | f>e) c d2 d | c6 | c2 (f3 e) | d2 (c3 d) | %8
w: 1. A- wake _|in splen- *|dor _ glor-|ious, ye hosts _|_ _ of Christ the|Lord,|and hear _|the sound _|
w: 3. Blest be _|the day _|and _ mo-|ment in which _|_ _ God's ho- ly|word|was first _|made known _|
 (cB) A4 | !breath!AA (d3 e | f>e) c d2 d | c6 | z6 | z6 | d2 d2 c2 | (B7/2 c/) (A>B) | %16
w: me- * lo-|dious of God's _|_ _ word, pure and|good,|||that now rings|out _ so _|
w: un- * to|you, your soul's _|_ _ great treas- ure|hoard!|||No thing you'll|find _ more _|
 G2 !breath!G2 c2 | (A3 B cA | d4) c2 | cc (de f2- | f2) e2 f2- | f2 z2 B2 | A4 G2 | (F3 G) A2 | %24
w: sweet- ly: its|light _ _ _|_ shines|as the light _ _|_ of day,|_ pro-|claims God's|good- * ness|
w: pleas- ant, nor|an- * * *|* gel|bright nor crea- * *|* ture fine|_ in|eith- er|earth _ or|
 G6 | F6!fine! || F2 F2 c2 | (A3 G) F2 | G2 !breath!A2 B2 | c4 B2 | (A2 F2) G2 | A6 | F2 F2 c2 | %33
w: free-|ly.|2. On hyp- o-|crites _ re-|ly not— how|ma- ny|you _ will|find;—|sus- pect all|
w: hea-|ven.||||||||
 (A3 G) F2 | G2 !breath!A2 B2 | c4 B2 | (A2 F2) G2 | A6 | c2 c2 B2 | A4 G2 | (F3 G A2 | GF E3 D) | %42
w: world- * ly|know- ledge— it|seems so|well _ re-|fined—;|to God's true|word be|faith- * *||
w: |||||||||
 !breath!C6 | F2 F2 F2- | F2 G3 G | (AB/c/BAGF | G2) G2 !breath!F2 | B2 A2 F2 | D2 C4 | (D3 E F2- | %50
w: ful|where- in God|_ has pro-|claimed _ _ _ _ _ _|_ to us|His will in|scrip- ture|truth- * *|
w: ||||||||
 FF E4) | F6!D.C.! |] %52
w: |ful.|
w: ||
V:2
 F2 F2 c2 | (A3 G) F2 | G2 !breath!A2 B2 | c4 B2 | (A2 F2) G2 | A6 | F2 F2 c2 | (A3 G) F2 | %8
w: 1. A- wake in|splen- * dor|glor- ious, ye|hosts of|Christ _ the|Lord,|and hear the|sound _ me-|
w: 3. Blest be the|day _ and|mo- ment in|which God's|ho- * ly|word|was first made|known _ un-|
 G2 !breath!A2 B2 | c4 B2 | (A2 F2) G2 | A6 | c2 c2 B2 | A4 G2 | (F3 G A2 | GF E3 D) | !breath!C6 | %17
w: lo- dious of|God's word,|pure _ and|good,|that now rings|out so|sweet- * *||ly:|
w: to you, your|soul's great|treas- * ure|hoard!|No thing you'll|find more|pleas- * *||ant,|
 F2 F2 F2- | F2 G3 G | (AB/c/BAGF | G2) G2 !breath!F2 | B2 A2 F2 | D2 C4 | (D3 E F2- | FF E4) | %25
w: its light shines|_ as the|light _ _ _ _ _ _|_ of day,|pro- claims God's|good- ness|free- * *||
w: nor an- gel|_ bright nor|crea- * * * * * *|* ture fine|in eith- er|earth or|hea- * *||
 F6 || z6 | A,2 E2 E2 | D2 C2 F2- | F2 !breath!F2 G2 | DE F3 E | F6 | z6 | A,2 E2 E2 | D2 C2 F2- | %35
w: ly.||2. On hyp- o-|crites re- ly|_ not— how|ma- ny you will|find;—||sus- pect all|world- ly know-|
w: ven.||||||||||
 F2 !breath!F2 G2 | DE F3 E | F6 | z6 | F2 F2 E2 | (D3 E F2) | B,2 C2 !breath!C2 | E2 E2 G2 | %43
w: * ledge— it|seems so well re-|fined—;||to God's true|word _ _|be faith- ful|where- in God|
w: ||||||||
 D4 C2 | (B,3 CDE | F4 A,2 | C2) C2 !breath!F2 | D2 (C3 D | CB,A,G,) A,2 | B,4"^( )" F,2 | C6 | %51
w: has pro-|claimed _ _ _|_ _|* to us|His will _|_ _ _ _ in|scrip- ture|truth-|
w: ||||||||
 F6 |] %52
w: ful.|
w: |
V:3
 x6 | x6 | x6 | x6 | x6 | x6 | x6 | x6 | x6 | x6 | x6 | x6 | x6 | x6 | x6 | x6 | x6 | x6 | x6 | %19
 x6 | x6 | x6 | x6 | x6 | x6 | x6 || x6 | x6 | x6 | x6 | x6 | x6 | x6 | x6 | x6 | x6 | x6 | x6 | %38
 x6 | x6 | x6 | x6 | x6 | x6 | x6 | x6 | x6 | x6 | x6 | x4 F2 | x6 | x6 |] %52
V:4
 z6 | A,2 E2 E2 | D2 C2 F2- | F2 !breath!F2 G2 | DE F3 E | F6 | z6 | A,2 E2 E2 | D2 C2 F2- | %9
w: |1. A- wake in|splen- dor glor-|* ious, ye|hosts of Christ the|Lord,||and hear the|sound me- lo-|
w: |3. Blest be the|day and mo-|* ment in|which God's ho- ly|word||was first made|known un- to|
 F2 !breath!F2 G2 | DE F3 E | F6 | z6 | F2 F2 E2 | (D3 E F2) | B,2 C2 !breath!C2 | E2 E2 G2 | %17
w: * dious of|God's word, pure and|good,||that now rings|out _ _|so sweet- ly:|its light shines|
w: _ you, your|soul's great treas- ure|hoard!||No thing you'll|find _ _|more pleas- ant,|nor an- gel|
 D4 C2 | (B,3 C DE | F4 A,2 | C2) C2 !breath!F2 | D2 (C3 D | CB,A,G,) A,2 | B,4"^( )" F,2 | C6 | %25
w: as the|light _ _ _|_ _|* of day,|pro- claims _|_ _ _ _ God's|good- ness|free-|
w: bright nor|crea- * * *||* ture fine|in eith- *|* * * * er|earth or|hea-|
 F6 || z6 | z6 | z6 | z6 | z6 | z6 | z6 | z6 | z6 | z6 | z6 | z6 | z6 | z6 | z6 | z6 | z6 | z6 | %44
w: ly.|||||||||||||||||||
w: ven.|||||||||||||||||||
 z6 | z6 | z6 | z6 | z6 | z6 | z6 | z6 |] %52
w: ||||||||
w: ||||||||
V:5
 x6 | x6 | x6 | x6 | x6 | x6 | x6 | x6 | x6 | x6 | x6 | x6 | x6 | x6 | x6 | x6 | x6 | x6 | x6 | %19
 x6 | x6 | x6 | x6 | x4 F2 | x6 | x6 || x6 | x6 | x6 | x6 | x6 | x6 | x6 | x6 | x6 | x6 | x6 | x6 | %38
 x6 | x6 | x6 | x6 | x6 | x6 | x6 | x6 | x6 | x6 | x6 | x6 | x6 | x6 |] %52

